X: 21651
T: SPLIT WOOD HORNPIPE -- American Dance
R: hornpipe, reel
B: K\"ohler's Violin Repository, v.2, 1885 p.165 #1
F: http://www.archive.org/details/klersviolinrepos02rugg
Z: 2012 John Chambers <jc:trillian.mit.edu>
M: C|
L: 1/8
K: F
u(cB) |\
AFAc fgaf | ebge fedc | AFEF DFCF | EFGA BdcB |\
AFAc fgaf | ebge fdcB | AcBd cegb | agfe f2 :|
|: u(ab) |\
c'afc bgec | afcA gecB | ABcd efga | bag^f gab=b |\
c'afc bgec | afcA gecB | ABcd efge | fafe f2 :|

%%sep 2 1 500

